X: 18418
T: Hunter's Purse, The
R: reel
M: 4/4
K: Edorian
|:BE E2 EDBA|D2 ED FA A2|G3A B3A|(3FGA Bc dBAd|
BE E2 EDBA|D2 ED FA A2|GFGA B3A|GEFD E3d:|
|:Be e2 edBc|d2 ec dB A2|G3A B3A|(3FGA Bc dBAd|
Be e2 edBc|d2 ec dBAF|GFGA B3A|GEFD E3d:|

